pretzel/src/assets/images/logo.svg

<svg width="138" height="31" viewBox="0 0 138 31" fill="none" xmlns="http://www.w3.org/2000/svg">
<path d="M32.9635 4.57594C31.1821 2.79462 28.7598 1.85156 25.9583 1.85156C25.1395 1.85427 24.3226 1.93059 23.5175 2.07962C22.2834 2.30734 21.0797 2.67652 19.9302 3.17985C21.3871 4.06167 22.7324 5.11611 23.9366 6.32029C24.0137 6.39733 24.0907 6.47438 24.1616 6.55143L24.3373 6.51752C24.8698 6.41774 25.4103 6.36617 25.9522 6.36343C27.5455 6.36343 28.8707 6.85037 29.7891 7.76569C31.0219 8.99844 31.4564 10.9277 31.0219 13.2206C30.7444 14.6528 30.2232 16.0267 29.4809 17.2825C28.949 18.1941 28.3297 19.0518 27.6318 19.8436C27.6356 19.0167 27.5624 18.1913 27.413 17.3781C26.7966 13.8894 24.8612 10.3945 22.0043 7.53455C19.1474 4.67456 15.6587 2.74531 12.17 2.11044C11.3697 1.96493 10.558 1.89067 9.74459 1.88854C6.94008 1.88854 4.50539 2.8316 2.73023 4.61601C0.431149 6.91509 -0.459515 10.2682 0.224662 14.0589C0.841038 17.5445 2.77646 21.0393 5.63336 23.8993C8.49026 26.7593 11.9882 28.6793 15.4769 29.3111H15.557C16.2791 29.4499 17.0129 29.519 17.7482 29.5176H17.8992C18.7694 29.5207 19.637 29.4235 20.4849 29.2279C23.875 28.5406 27.2651 26.6483 30.0388 23.8654C32.9018 21.0023 34.828 17.5013 35.4598 14.0034C36.1532 10.2373 35.2656 6.88119 32.9635 4.57594ZM22.9843 18.167C23.3973 20.4569 22.9504 22.3923 21.7269 23.6158C21.0296 24.2885 20.1457 24.7353 19.1905 24.8978C18.7187 24.9746 18.2416 25.0148 17.7636 25.018C17.6249 25.018 17.4924 25.018 17.3568 25.018C17.2212 25.018 17.0055 24.9903 16.8267 24.9687L16.6696 24.9502L16.5863 24.9348C15.5853 24.7892 14.655 24.3332 13.9267 23.6312C13.7421 23.4411 13.575 23.2348 13.4274 23.0148C13.05 22.4562 12.789 21.8274 12.66 21.1657C12.4736 20.1721 12.4799 19.152 12.6785 18.1609C13.1501 15.5628 14.6324 12.9217 16.8545 10.6904C17.1688 10.376 17.4924 10.075 17.8253 9.7874C18.1674 10.0802 18.5002 10.3853 18.8238 10.712C21.0397 12.9309 22.5159 15.5782 22.9843 18.1701V18.167ZM4.66256 13.2576C4.24959 10.9647 4.69647 9.02926 5.91997 7.80575C6.84454 6.88119 8.16666 6.40042 9.76308 6.40042C10.3018 6.40226 10.8392 6.4528 11.3687 6.55143C12.2261 6.70904 13.0633 6.96124 13.8651 7.30341L13.6616 7.50064C11.0082 10.1572 9.15902 13.3562 8.40088 16.5953C8.33924 16.8511 8.28686 17.1038 8.24063 17.3565C8.09046 18.179 8.01618 19.0136 8.01873 19.8497C6.24974 17.828 5.07245 15.5228 4.66256 13.2607V13.2576Z" fill="#EA2667"/>
<path d="M55.6461 7.51739C54.3237 6.71637 52.8033 6.3021 51.2575 6.32162C50.054 6.29929 48.8625 6.56338 47.7811 7.09209C47.0135 7.47159 46.3333 8.00689 45.784 8.66385V6.69761H41.8516V30.1014H46.0059V22.1656C46.5194 22.7109 47.1338 23.1515 47.815 23.463C48.8847 23.9537 50.0499 24.2011 51.2266 24.1873C52.7858 24.2127 54.3212 23.804 55.6615 23.0069C56.957 22.2254 58.0208 21.1126 58.7433 19.7833C59.5053 18.396 59.896 16.8355 59.8775 15.2529C59.8994 13.6738 59.5084 12.1164 58.7433 10.7349C58.0111 9.40917 56.9429 8.29951 55.6461 7.51739ZM54.9865 17.928C54.5982 18.6821 54.0026 19.3097 53.2699 19.737C52.5049 20.1742 51.6361 20.3967 50.7551 20.3811C49.9044 20.3888 49.0674 20.1662 48.3328 19.737C47.601 19.3095 47.0065 18.6819 46.6192 17.928C46.1967 17.1006 45.985 16.1817 46.0029 15.2529C45.9878 14.3352 46.1995 13.428 46.6192 12.6117C47.0039 11.8555 47.5918 11.2215 48.317 10.781C49.0422 10.3406 49.8759 10.1111 50.7243 10.1185C51.6147 10.0982 52.4925 10.3323 53.2545 10.7934C53.9756 11.242 54.5672 11.8709 54.9711 12.6179C55.3959 13.4267 55.608 14.3303 55.5875 15.2437C55.6101 16.1742 55.4038 17.096 54.9865 17.928Z" fill="white"/>
<path d="M66.9317 7.24977C66.2562 7.66067 65.7277 8.27438 65.4216 9.00336V6.69811H61.4922V23.8118H65.6435V14.2795C65.6435 12.979 66.0051 11.9722 66.7283 11.2593C67.1012 10.9009 67.5426 10.6214 68.0261 10.4376C68.5096 10.2539 69.0252 10.1696 69.542 10.1899H71.0213V6.51012H70.0167C68.9411 6.48053 67.8769 6.73569 66.9317 7.24977Z" fill="white"/>
<path d="M86.031 8.80611C85.3094 8.01595 84.4237 7.39324 83.436 6.98164C82.3088 6.52211 81.0996 6.29768 79.8826 6.32211C78.3668 6.30412 76.8749 6.70054 75.568 7.46857C74.2772 8.22905 73.2132 9.32074 72.4861 10.6306C71.7156 12.0366 71.3257 13.6195 71.3551 15.2226C71.3357 16.8011 71.7141 18.3591 72.4553 19.7529C73.1679 21.0936 74.2336 22.2137 75.5372 22.992C76.9379 23.8104 78.5381 24.2244 80.16 24.1878C81.2627 24.1996 82.359 24.0182 83.399 23.6515C84.3407 23.3217 85.211 22.8155 85.9631 22.1599C86.6463 21.575 87.1799 20.8354 87.5195 20.0026L84.1849 18.3661C83.7889 19.0605 83.21 19.6328 82.5111 20.0209C81.8123 20.4089 81.0203 20.5976 80.2216 20.5666C79.3412 20.5842 78.4741 20.3501 77.7222 19.8916C77.0021 19.4455 76.4321 18.7939 76.0857 18.0209C75.8622 17.5223 75.7227 16.9902 75.6728 16.4461H88.0003C88.0723 16.178 88.1248 15.9051 88.1574 15.6294C88.2005 15.3169 88.2221 15.0018 88.2222 14.6863C88.2306 13.5853 88.0384 12.4918 87.6551 11.4596C87.286 10.4805 86.7349 9.58019 86.031 8.80611ZM77.5866 10.3933C78.2706 9.95457 79.0702 9.73026 79.8826 9.74916C80.6975 9.73132 81.4985 9.96248 82.1786 10.4118C82.8205 10.8411 83.3103 11.4624 83.5778 12.1869C83.7075 12.5353 83.7853 12.9008 83.8089 13.2718H75.7806C75.8484 12.9271 75.9517 12.5904 76.0888 12.2671C76.3884 11.5061 76.9103 10.8531 77.5866 10.3933Z" fill="white"/>
<path d="M98.8387 20.3829C98.2882 20.4008 97.7407 20.2955 97.2361 20.0747C96.8241 19.8921 96.4855 19.5762 96.2746 19.1779C96.0546 18.7112 95.949 18.1988 95.9664 17.6832V10.3791H99.9297V6.69935H95.9757V2.80078H91.8244V4.089C91.8244 4.94988 91.5942 5.60016 91.134 6.03984C90.5956 6.50732 89.8948 6.74421 89.1832 6.69935H88.875V10.3791H91.8305V17.9297C91.8305 19.8384 92.3657 21.327 93.4362 22.3954C94.5066 23.4637 96.0034 23.9949 97.9265 23.9887C98.2347 23.9887 98.5922 23.9733 98.9805 23.9394C99.3688 23.9055 99.6986 23.8716 99.9728 23.8315V20.2904L99.3904 20.3552C99.2071 20.3742 99.023 20.3835 98.8387 20.3829Z" fill="white"/>
<path d="M115.731 10.0646V6.69922H101.921V10.379H110.217L101.449 20.4444V23.8098H115.761V20.13H107.206L115.731 10.0646Z" fill="white"/>
<path d="M130.307 8.80599C129.586 8.01583 128.7 7.39312 127.712 6.98152C126.587 6.52282 125.38 6.2984 124.165 6.322C122.656 6.30061 121.17 6.69106 119.867 7.45131C118.564 8.21157 117.492 9.31285 116.768 10.6366C115.997 12.0424 115.606 13.6253 115.634 15.2286C115.615 16.8072 115.993 18.3652 116.734 19.759C117.447 21.0996 118.513 22.2197 119.816 22.998C121.217 23.8174 122.817 24.2314 124.439 24.1938C125.542 24.2057 126.638 24.0242 127.678 23.6576C128.62 23.3278 129.49 22.8215 130.242 22.1659C130.92 21.5793 131.448 20.8398 131.783 20.0086L128.48 18.3691C128.084 19.0634 127.505 19.6358 126.806 20.0238C126.107 20.4118 125.315 20.6006 124.516 20.5695C123.636 20.5872 122.769 20.353 122.017 19.8946C121.297 19.4485 120.727 18.7969 120.38 18.0239C120.157 17.5253 120.017 16.9932 119.967 16.4491H132.295C132.367 16.181 132.419 15.908 132.452 15.6324C132.495 15.3198 132.517 15.0048 132.517 14.6893C132.527 13.5881 132.335 12.4944 131.95 11.4626C131.575 10.481 131.018 9.57944 130.307 8.80599ZM121.863 10.3932C122.549 9.95327 123.35 9.72891 124.165 9.74904C124.98 9.73121 125.781 9.96237 126.461 10.4117C127.103 10.841 127.593 11.4623 127.86 12.1868C127.99 12.5352 128.068 12.9007 128.091 13.2716H120.078C120.149 12.9277 120.252 12.5913 120.387 12.2669C120.681 11.5095 121.195 10.8572 121.863 10.3932Z" fill="white"/>
<path d="M138 0H133.849V23.8106H138V0Z" fill="white"/>
</svg>

<svg width="138" height="31" fill="none" xmlns="http://www.w3.org/2000/svg"><path d="M32.964 4.576c-1.782-1.781-4.204-2.724-7.006-2.724-.818.002-1.635.079-2.44.228a16.332 16.332 0 0 0-3.588 1.1 21.165 21.165 0 0 1 4.232 3.371l.175-.033a9.016 9.016 0 0 1 1.615-.155c1.593 0 2.919.487 3.837 1.403 1.233 1.232 1.667 3.162 1.233 5.455a12.748 12.748 0 0 1-1.541 4.061 16.286 16.286 0 0 1-1.85 2.562c.005-.827-.069-1.653-.218-2.466-.616-3.489-2.552-6.983-5.409-9.843-2.857-2.86-6.345-4.79-9.834-5.425a13.76 13.76 0 0 0-2.425-.221c-2.805 0-5.24.943-7.015 2.727-2.299 2.3-3.19 5.652-2.505 9.443.616 3.486 2.551 6.98 5.408 9.84 2.857 2.86 6.355 4.78 9.844 5.412h.08c.722.139 1.456.208 2.191.207h.151c.87.003 1.738-.095 2.586-.29 3.39-.687 6.78-2.58 9.554-5.363 2.863-2.863 4.789-6.364 5.42-9.862.694-3.766-.193-7.122-2.495-9.427zm-9.98 13.591c.413 2.29-.034 4.225-1.257 5.449a4.817 4.817 0 0 1-2.537 1.282 9.268 9.268 0 0 1-1.426.12h-.407c-.136 0-.351-.028-.53-.05l-.157-.018-.084-.015a4.836 4.836 0 0 1-2.66-1.304 4.418 4.418 0 0 1-.499-.616 5.018 5.018 0 0 1-.767-1.85 7.89 7.89 0 0 1 .018-3.004c.472-2.598 1.954-5.24 4.177-7.47.314-.315.637-.616.97-.904.342.293.675.598.999.925 2.216 2.219 3.692 4.866 4.16 7.458v-.003zm-18.321-4.91c-.413-2.292.033-4.228 1.257-5.451C6.845 6.88 8.167 6.4 9.763 6.4a8.935 8.935 0 0 1 1.606.151c.857.158 1.694.41 2.496.752l-.203.198c-2.654 2.656-4.503 5.855-5.261 9.094a13.65 13.65 0 0 0-.382 3.254c-1.77-2.021-2.947-4.326-3.356-6.588v-.003z" fill="#EA2667"/><path d="M55.646 7.517a8.27 8.27 0 0 0-4.389-1.195 7.594 7.594 0 0 0-3.476.77 6.164 6.164 0 0 0-1.997 1.572V6.698h-3.932V30.1h4.154v-7.935a5.796 5.796 0 0 0 1.809 1.297c1.07.49 2.235.738 3.412.724a8.408 8.408 0 0 0 4.434-1.18 8.512 8.512 0 0 0 3.082-3.224 9.187 9.187 0 0 0 1.134-4.53 9.066 9.066 0 0 0-1.134-4.518 8.63 8.63 0 0 0-3.097-3.218zm-.66 10.411a4.455 4.455 0 0 1-1.716 1.809 4.893 4.893 0 0 1-2.515.644 4.717 4.717 0 0 1-2.422-.644 4.45 4.45 0 0 1-1.714-1.809 5.643 5.643 0 0 1-.616-2.675 5.576 5.576 0 0 1 .616-2.641 4.562 4.562 0 0 1 4.105-2.494c.89-.02 1.769.214 2.53.675a4.885 4.885 0 0 1 1.717 1.825c.425.809.637 1.712.617 2.626a5.68 5.68 0 0 1-.602 2.684zM66.932 7.25a3.753 3.753 0 0 0-1.51 1.753V6.698h-3.93v17.114h4.152v-9.533c0-1.3.361-2.307 1.084-3.02a3.844 3.844 0 0 1 2.814-1.07h1.48V6.51h-1.005a6.105 6.105 0 0 0-3.085.74zM86.031 8.806a7.336 7.336 0 0 0-2.595-1.824 8.938 8.938 0 0 0-3.553-.66 8.32 8.32 0 0 0-4.315 1.147 8.404 8.404 0 0 0-3.082 3.162 9.204 9.204 0 0 0-1.13 4.592 9.403 9.403 0 0 0 1.1 4.53 8.32 8.32 0 0 0 3.081 3.239c1.4.818 3.001 1.232 4.623 1.196a9.437 9.437 0 0 0 3.239-.537 7.852 7.852 0 0 0 2.564-1.491 5.647 5.647 0 0 0 1.556-2.157l-3.334-1.637a4.368 4.368 0 0 1-3.963 2.2 4.623 4.623 0 0 1-2.5-.674 4.24 4.24 0 0 1-1.636-1.871 4.957 4.957 0 0 1-.413-1.575H88c.072-.268.125-.54.157-.817.044-.312.065-.627.065-.943a9.07 9.07 0 0 0-.567-3.226c-.369-.98-.92-1.88-1.624-2.654zm-8.444 1.587a4.077 4.077 0 0 1 2.296-.644 4.006 4.006 0 0 1 2.296.663 3.661 3.661 0 0 1 1.399 1.775c.13.348.207.714.23 1.085h-8.027a5.09 5.09 0 0 1 .308-1.005c.3-.76.821-1.414 1.498-1.874zM98.839 20.383a3.698 3.698 0 0 1-1.603-.308 2.01 2.01 0 0 1-.961-.897 3.249 3.249 0 0 1-.309-1.495V10.38h3.964V6.7h-3.954V2.801h-4.152v1.288c0 .86-.23 1.511-.69 1.95a2.715 2.715 0 0 1-1.95.66h-.309v3.68h2.956v7.55c0 1.91.535 3.398 1.605 4.466 1.07 1.069 2.567 1.6 4.49 1.594.309 0 .666-.016 1.055-.05.388-.034.718-.067.992-.108v-3.54l-.583.064a5.186 5.186 0 0 1-.551.028zM115.731 10.065V6.699h-13.81v3.68h8.296l-8.768 10.065v3.366h14.312v-3.68h-8.555l8.525-10.065z" fill="#fff"/><path d="M130.307 8.806a7.328 7.328 0 0 0-2.595-1.824 8.935 8.935 0 0 0-3.547-.66 8.295 8.295 0 0 0-7.397 4.315 9.215 9.215 0 0 0-1.134 4.592 9.41 9.41 0 0 0 1.1 4.53 8.328 8.328 0 0 0 3.082 3.239 8.754 8.754 0 0 0 4.623 1.196 9.436 9.436 0 0 0 3.239-.536 7.848 7.848 0 0 0 2.564-1.492 5.64 5.64 0 0 0 1.541-2.157l-3.303-1.64a4.367 4.367 0 0 1-3.964 2.2 4.623 4.623 0 0 1-2.499-.674 4.246 4.246 0 0 1-1.637-1.871 4.973 4.973 0 0 1-.413-1.575h12.328c.072-.268.124-.541.157-.817a6.92 6.92 0 0 0 .065-.943 8.996 8.996 0 0 0-.567-3.226 8.303 8.303 0 0 0-1.643-2.657zm-8.444 1.587a4.076 4.076 0 0 1 2.302-.644 4.006 4.006 0 0 1 2.296.663 3.657 3.657 0 0 1 1.399 1.775c.13.348.208.714.231 1.085h-8.013c.071-.344.174-.68.309-1.005a4.079 4.079 0 0 1 1.476-1.874zM138 0h-4.151v23.81H138V0z" fill="#fff"/></svg>
